rospo-dark/16x16/actions/page-4sides.svg

<svg height="16" viewBox="0 0 16 16" width="16" xmlns="http://www.w3.org/2000/svg"><path d="m0 1v14h15v-14zm2 2h2v10h-2zm3 0h2v10h-2zm3 0h2v10h-2zm3 0h2v10h-2z" fill="#d3dae3"/></svg>

<?xml version="1.0" encoding="UTF-8" standalone="no"?>
<svg xmlns="http://www.w3.org/2000/svg" width="22" height="22" viewBox="0 0 22 22">
 <defs>
  <style type="text/css" id="current-color-scheme">
   .ColorScheme-Text { color:#d3dae3; } .ColorScheme-Highlight { color:#5294e2; }
  </style>
 </defs>
 <path style="fill:currentColor;opacity:1" class="ColorScheme-Text" transform="translate(3 3)" d="M 0 1 L 0 15 L 15 15 L 15 1 L 0 1 z M 2 3 L 4 3 L 4 13 L 2 13 L 2 3 z M 5 3 L 7 3 L 7 13 L 5 13 L 5 3 z M 8 3 L 10 3 L 10 13 L 8 13 L 8 3 z M 11 3 L 13 3 L 13 13 L 11 13 L 11 3 z"/>
</svg>
